X: 921
T: Jackson's Rambles   #2
T: treallta \.mic\.seoin
R: jig
%S: s:4 b:20(4+4+4+4+4)
B: O'Neill's 1850 #921
O: F.O'Neill
Z: Tom Keays (htkeays@mailbox.syr.edu)
N: Compacted via repeats and multiple endings [JC]
N: Compacted by using labels and play order [JC]
P: Play (A1A2)x2 + B1B2 + B1C
%abc 1.6
M: 6/8
L: 1/8
K: D
(F/E/) "^A"|: DFA B2A | BdB BAF | DFA [1,3 dAF | EFE E2F :|
|[2,4 DAG | FDD D2 :: g "^B"| fed dfa | bge fdB | AFA [1,3 def | gee e2 :|
|[2 d2e | fdd d2 :| g "^C"| gbg afa | ege fdB | AFA d2e | fdd d2 |]
